dist/assets/img/check-close.svg

<svg width="40" height="40" viewBox="0 0 40 40" fill="none" xmlns="http://www.w3.org/2000/svg">
<path d="M31.6667 10.6835L29.3167 8.3335L20 17.6502L10.6834 8.3335L8.33337 10.6835L17.65 20.0002L8.33337 29.3168L10.6834 31.6668L20 22.3502L29.3167 31.6668L31.6667 29.3168L22.35 20.0002L31.6667 10.6835Z" fill="#FC3848"/>
</svg>

<svg width="40" height="40" viewBox="0 0 40 40" fill="none" xmlns="http://www.w3.org/2000/svg"><path d="M31.667 10.684l-2.35-2.35L20 17.65l-9.317-9.316-2.35 2.35L17.65 20l-9.317 9.317 2.35 2.35L20 22.35l9.317 9.317 2.35-2.35L22.35 20l9.317-9.316z" fill="#FC3848"/></svg>
